X:138
T:Freers Quick Step. JGi.138
T:Highland Laddie,aka.
M:2/4
L:1/8
Q:1/4=100
S:Joshua Gibbons MS,1823,Tealby,Lincs.
R:quick step
C:Castor
O:Tealby,Lincolnshire
Z:VMP/R.Greig, 2009
K:Am
G|c>dee|ed e2|ed dc/d/|edd c/G/|c>dee|fde2|cA AG/A/|cAA:|
|:g|ac’gc’|f/e/d/c/e2|ed dc/d/|edd>g|ac’gd’|f/e/d/c/ ed|cA AG/A/|cAA:|

